X:1
T:The Scolding Wife
M:2/4
L:1/4
K:A
 A,| D F| E2-| E2-| ED/2-B,/2| G, B,| A,2-| A,2-| A, F| =G E| A2| A F|\
=G/2-D/2 E-| E2-| E2| z F| =G E| A2| E3/2 D/2| C A,| =G, B,/2B,/2|\
 A,C/2-E/2| D B,| =G, A,-| A,2| z||
